X:237
T:Polka d'Uzeste
C:trad
A:Landes
O:France
Z:S. Piron
M:2/4
L:1/8
Q:1/4=150
K:G
GA/2B/2 AG|BBB2|Bc/2d/2 cB|ddd2|de/2d/2 cB|dcc2|AB/2c/2 BA|Bc d2:|
|B2B2|ded2|B2B2|dg f2|A2A2|cd c2|A/2c/2A/2c/2 dc|A/2c/2A/2c/2 dc|
B2B2|ded2|B2B2|dg f2|ee ef/2e/2|ddd2|f/2e/2d f/2e/2d|gg g2||
